src/icons/change to dark mode.svg

<svg width="40" height="40" viewBox="0 0 40 40" fill="none" xmlns="http://www.w3.org/2000/svg">
<path opacity="0.2" d="M14.1094 20.375C14.5732 18.6426 15.4685 17.0561 16.7118 15.7637C17.9551 14.4712 19.5057 13.515 21.2188 12.9844H21.2344C21.25 12.8281 21.25 12.6719 21.25 12.5156C21.255 10.2508 20.491 8.05133 19.0831 6.27726C17.6752 4.50319 15.7068 3.25958 13.5 2.75C13.6629 3.48901 13.7467 4.24326 13.75 5C13.7459 7.6509 12.691 10.192 10.8165 12.0665C8.94204 13.941 6.4009 14.9959 3.75 15C2.99326 14.9967 2.23901 14.9129 1.5 14.75C1.85726 16.2875 2.57284 17.7187 3.58839 18.9271C4.60394 20.1354 5.8907 21.0866 7.34375 21.7031C8.59549 20.6011 10.2073 19.9953 11.875 20C12.6358 19.9961 13.3916 20.1229 14.1094 20.375Z" fill="black"/>
<path d="M24.3751 11.2501C23.7263 11.2549 23.0787 11.3071 22.4376 11.4063C22.2151 9.0596 21.2591 6.84258 19.7052 5.06996C18.1514 3.29735 16.0787 2.05922 13.7813 1.53132C13.5746 1.48339 13.359 1.48889 13.155 1.54729C12.951 1.60569 12.7652 1.71508 12.6151 1.86514C12.4651 2.0152 12.3557 2.201 12.2973 2.40502C12.2389 2.60905 12.2334 2.82458 12.2813 3.03132C12.4252 3.67772 12.4986 4.33784 12.5001 5.00007C12.5001 7.32071 11.5782 9.54631 9.93725 11.1872C8.29631 12.8282 6.07071 13.7501 3.75007 13.7501C3.08784 13.7486 2.42772 13.6752 1.78132 13.5313C1.57458 13.4834 1.35905 13.4889 1.15502 13.5473C0.950997 13.6057 0.765201 13.7151 0.61514 13.8651C0.465079 14.0152 0.355693 14.201 0.29729 14.405C0.238887 14.609 0.23339 14.8246 0.281316 15.0313C0.615856 16.4788 1.23417 17.8455 2.10047 19.0525C2.96676 20.2594 4.06384 21.2825 5.32819 22.0626C4.43834 23.273 3.90153 24.7065 3.77739 26.2037C3.65324 27.7009 3.94664 29.2032 4.62497 30.5437C5.30331 31.8841 6.34001 33.0103 7.6199 33.797C8.89979 34.5837 10.3727 35.0001 11.8751 35.0001H24.3751C27.5245 35.0001 30.545 33.749 32.772 31.522C34.999 29.295 36.2501 26.2745 36.2501 23.1251C36.2501 19.9756 34.999 16.9552 32.772 14.7282C30.545 12.5012 27.5245 11.2501 24.3751 11.2501ZM3.34382 16.2501H3.75007C6.73248 16.2459 9.59156 15.0593 11.7005 12.9505C13.8093 10.8416 14.9959 7.98248 15.0001 5.00007V4.57819C16.4392 5.25476 17.6649 6.31335 18.5438 7.63859C19.4227 8.96383 19.921 10.5049 19.9844 12.0938C18.4607 12.7021 17.0788 13.6183 15.9254 14.7851C14.772 15.952 13.8719 17.3443 13.2813 18.8751C12.8169 18.794 12.3465 18.7522 11.8751 18.7501C10.1947 18.7514 8.55648 19.2756 7.18757 20.2501C5.50569 19.3699 4.15635 17.9657 3.34382 16.2501ZM24.3751 32.5001H11.8751C10.3832 32.5001 8.95248 31.9074 7.89759 30.8525C6.8427 29.7976 6.25007 28.3669 6.25007 26.8751C6.25007 25.3832 6.8427 23.9525 7.89759 22.8976C8.95248 21.8427 10.3832 21.2501 11.8751 21.2501C12.131 21.2501 12.3867 21.2658 12.6407 21.2969C12.5461 21.9017 12.4991 22.5129 12.5001 23.1251C12.5001 23.4566 12.6318 23.7745 12.8662 24.0089C13.1006 24.2434 13.4185 24.3751 13.7501 24.3751C14.0816 24.3751 14.3995 24.2434 14.6339 24.0089C14.8684 23.7745 15.0001 23.4566 15.0001 23.1251C15.0001 21.2709 15.5499 19.4583 16.58 17.9166C17.6102 16.3749 19.0744 15.1733 20.7874 14.4637C22.5005 13.7541 24.3855 13.5685 26.204 13.9302C28.0226 14.2919 29.6931 15.1848 31.0042 16.4959C32.3153 17.8071 33.2082 19.4775 33.5699 21.2961C33.9317 23.1147 33.746 24.9997 33.0364 26.7127C32.3269 28.4258 31.1252 29.89 29.5835 30.9201C28.0418 31.9502 26.2293 32.5001 24.3751 32.5001Z" fill="black"/>
</svg>

<svg xmlns="http://www.w3.org/2000/svg" width="40" height="40" fill="none"><path fill="#000" d="M14.11 20.375a10.608 10.608 0 0 1 7.109-7.39h.015c.016-.157.016-.313.016-.47A10 10 0 0 0 13.5 2.75c.163.739.247 1.493.25 2.25a10.015 10.015 0 0 1-10 10 10.669 10.669 0 0 1-2.25-.25 10.016 10.016 0 0 0 5.844 6.953A6.828 6.828 0 0 1 11.875 20a6.64 6.64 0 0 1 2.234.375Z" opacity=".2"/><path fill="#000" d="M24.375 11.25c-.649.005-1.296.057-1.937.156a11.219 11.219 0 0 0-8.657-9.875 1.25 1.25 0 0 0-1.5 1.5c.144.647.218 1.307.22 1.97a8.75 8.75 0 0 1-8.75 8.75 9.156 9.156 0 0 1-1.97-.22 1.25 1.25 0 0 0-1.5 1.5 11.235 11.235 0 0 0 5.047 7.032A8.125 8.125 0 0 0 11.875 35h12.5a11.875 11.875 0 0 0 0-23.75Zm-21.031 5h.406A11.266 11.266 0 0 0 15 5v-.422a8.687 8.687 0 0 1 4.984 7.516 11.924 11.924 0 0 0-6.703 6.781 8.391 8.391 0 0 0-1.406-.125 8.093 8.093 0 0 0-4.687 1.5 8.734 8.734 0 0 1-3.844-4ZM24.375 32.5h-12.5a5.625 5.625 0 0 1 0-11.25 6.3 6.3 0 0 1 .766.047 11.706 11.706 0 0 0-.14 1.828 1.25 1.25 0 0 0 2.5 0 9.375 9.375 0 1 1 9.374 9.375Z"/></svg>
